!!!!SEGMENT: pl-kk--kk-i-1--049-003_szadek-tomasz--offitium-in-melodiam-motetae-pisneme-patrem.krn
!!!cenid: 15xx:767
!!!COM: Szadek, Tomasz
!!!COM-rismID: pe30020506
!!!CDT: ~1550-1612
!!!CNT: Polish
!!!OPR: Offitium in melodiam motetae Pisneme
!!!OTL: Patrem
!!!OMV: 003
!!!PDT:
!!!AGN:
!!!YEC: Copyright 2022 Narodowy Instytut Fryderyka Chopina (https://polishscores.org)
!!!YEM: License CC-BY-4.0 (https://creativecommons.org/licenses/by/4.0)
!!!SMS-siglum: PL-Kk
!!!SMS-shelfmark: Kk.I.1
!!!SMS-shelfwork: 049-003 M
!!!SMS-variant:
!!!SMS-altvar:
!!!NIFC-rismSourceID: 300257954
!!!NIFC-rismChildID: 300258003
!!!NIFC-islandoraID: pl-kk:1
!!!URL-pdf-islandora: https://repozytorium.nifc.pl/islandora/object/pl-kk%3A1/datastream/PDF/view
!!!URL-scan: https://polish.musicsources.pl/pl/lokalizacje/galeria/rekopisy/5736 @EN{Scan on Polish Music Sources Website} @PL{Skany w portalu Dziedzictwo Muzyki Polskiej w otwartym dostępie}
!!!IIIF: https://repozytorium.nifc.pl/islandora/object/pl-kk%3A1/datastream/IIIF/view
!!!ONB-nifc: UWAGA: Cantus (s. 152v-160r, skan 0155-0162), Altus (s. 148r-156r, skan 0341-0349), Tenor (s. 127v-136r, skan 0518-0526), Bassus (s. 139v-146v, skan 0702-0709). Części Mszy: 1. Kyrie, 2. Et in terra, 3. Patrem, 4. Sanctus, 5. Agnus Dei
!!!AIN: 3 empty 1 tenor
!!!key:
**kern	**text	**kern	**text	**kern	**text	**kern	**text
*part4	*	*part3	*	*part2	*	*part1	*
*staff4	*	*staff3	*	*staff2	*	*staff1	*
*Iempty	*	*Itenor	*	*Iempty	*	*Iempty	*
*I"BASSVS	*	*I"TENOR	*	*I"ALTVS	*	*I"CANTVS	*
*mI"Basso	*	*mI"Tenore	*	*mI"Alto	*	*mI"Soprano	*
*I'B	*	*I'T	*	*I'A	*	*I'C	*
*	*	*	*	*	*	*mI'S	*
*ICvox	*	*ICvox	*	*ICvox	*	*ICvox	*
*clefF4	*	*clefC3	*	*clefC3	*	*clefC2	*
*	*	*mclefGv2	*	*mclefG2	*	*mclefG2	*
*k[b-]	*	*k[b-]	*	*k[b-]	*	*k[b-]	*
*F:	*	*F:	*	*F:	*	*F:	*
*M2/1	*	*M2/1	*	*M2/1	*	*M2/1	*
*met(C|)	*	*met(C|)	*	*met(C|)	*	*met(C|)	*
*mmet(c)	*	*mmet(c)	*	*mmet(c)	*	*mmet(c)	*
!	!	!	!	!LO:MO:mod=*	!	!LO:MO:mod=*	!
*	*	*	*	*stria6	*	*stria6	*
=1	=1	=1	=1	=1	=1	=1	=1
*xywh-#704:1482,2734,4321,1074	*	*xywh-#521:1254,492,4426,943	*	*xywh-#344:5935,597,4445,1054	*	*xywh-#157:5761,3136,4721,1141	*
!	!	!	!	!LO:TX:t=P:sześciolinia:problem	!	!LO:TX:t=P:sześciolinia:problem	!
!	!	!	!	!	!	!LO:SIC:v:t=powtórzony bemol	!
00r	.	0r	.	1d\	Pa-	0r	.
.	.	.	.	2g\	-trem	.	.
!	!	!	!	!LO:TX:t=P:problem=kreski pseudotaktowe oznaczane jak oddechy; nie wpisuję ich, bo pokrywają się z naszymi kreskami taktowymi	!	!	!
.	.	.	.	1g\	om-	.	.
=2	=2	=2	=2	=2	=2	=2	=2
.	.	1G/	Pa-	.	.	1r	.
.	.	.	.	2g\	-ni-	.	.
.	.	2d\	-trem	2f\	-po-	2r	.
!	!	!	!	!	!	!LO:TX:t=P:problem=kreski pseudotaktowe oznaczane jak oddechy; nie wpisuję ich, bo pokrywają się z naszymi kreskami taktowymi	!
.	.	1d\	om-	1f\	-ten-	2d/	Pa-
=3	=3	=3	=3	=3	=3	=3	=3
00r	.	.	.	.	.	2a\	-trem
.	.	2d\	-ni-	2f\	-tem	1a\	om-
!	!	!	!	!	!LO:MO:mod=Pat-	!	!
.	.	2c\	-po-	2e\	p(at)-	.	.
.	.	2A/	-ten-	2c/	-rem	2a\	-ni-
=4	=4	=4	=4	=4	=4	=4	=4
.	.	2c/	-tem	2e\	.	2g\	-po-
!	!	!	!LO:MO:mod=om-	!	!	!	!
.	.	2G/	o(m-	4d\	.	2b-\	-ten-
.	.	.	.	4e\	.	.	.
!	!	!	!LO:MO:mod=-ni	!	!	!	!
.	.	2d\	-n)i-	4f\	.	2a\	-tem
.	.	.	.	4d\	.	.	.
.	.	2e-X\	-po-	2.g\	.	2g\	.
=5	=5	=5	=5	=5	=5	=5	=5
*	*	*	*	*	*	*	*ij
!	!LO:MO:mod=fac-	!	!	!	!	!	!
1D\	FAc-	1d\	-ten-	.	.	1a\	Pa-
.	.	.	.	8f\L	.	.	.
.	.	.	.	8e\J	.	.	.
.	.	.	.	2f\	.	.	.
!LO:TX:t=P:problem=kreski pseudotaktowe oznaczane jak oddechy; nie wpisuję ich, bo pokrywają się z naszymi kreskami taktowymi	!	!	!	!	!	!	!
1G\	-to-	2B-/	-tem	1g\	.	2b-\	-trem
.	.	2G/	fac-	.	.	1b-\	om-
=6	=6	=6	=6	=6	=6	=6	=6
2G\	-rem	2.d/	-to-	2r	.	.	.
2B-\	coe-	.	.	2f\	fac-	2b-\	-ni-
.	.	4d/	-rem	.	.	.	.
2.F\	-li	4c/	.	2.f\	-to-	4a\	-po-
.	.	4B-/	coe-	.	.	4g\	.
.	.	4c/	.	.	.	4a\	.
*	*	*custos:c	*	*custos:f	*	*	*
!	!LO:MO:mod=et	!	!	!	!LO:MO:mod=-rem	!	!
4BB-/	e(t)	4d/	.	4f\	-re(m)	4b-\	.
!	!	!LO:LB:g=original	!	!LO:LB:g=original	!	!	!
=7	=7	=7	=7	=7	=7	=7	=7
*	*	*xywh-#521:1442,1358,4322,814	*	*xywh-#344:5983,1577,4280,842	*	*	*
2F\	ter-	2c/	-li	2f\	coe-	2a\	-ten-
*	*	*	*	*	*	*custos:a	*
!	!LO:MO:mod=-rae	!	!	!	!	!	!
2G\	-r(ae)	2B-/	et	1d\	-li	2g\	.
!	!	!	!	!	!	!LO:PB:g=original	!
*	*	*	*	*	*	*xywh-#158:1550,639,4366,1026	*
!	!LO:MO:mod=et	!	!	!	!	!	!
2D/	(et)	2.A/	ter-	.	.	2a\	-tem
*	*	*	*	*	*	*	*Xij
4F\	.	.	.	2c/	.	2A/	fac-
4E\	.	4G/	.	.	.	.	.
=8	=8	=8	=8	=8	=8	=8	=8
4D/	.	4F/	.	4B-/	.	1.d/	-to-
4C/	.	4E/	.	4A/	.	.	.
!	!	!	!LO:MO:mod=-rae	!	!	!	!
4BB-/	.	1F/	-r(ae)	1B-/	et	.	.
4AA/	.	.	.	.	.	.	.
1BB-/	.	.	.	.	.	.	.
.	.	2D/	vi-	2G/	ter-	2d/	-rem
=9	=9	=9	=9	=9	=9	=9	=9
!	!	!	!	!	!LO:MO:mod=-rae	!	!
1AA/	.	2.A/	-ſi-	2A/	-r(ae)	1c/	coe-
.	.	.	.	2c/	coe-	.	.
.	.	4A/	-bi-	.	.	.	.
2r	.	2G/	-li-	2d/	-li	2B-/	-li
1D/	et	2F/	-um	2.f\	et	2A/	et
=10	=10	=10	=10	=10	=10	=10	=10
.	.	2A/	om-	.	.	2.d/	ter-
.	.	.	.	4e\	.	.	.
*custos:AA	*	*	*	*	*	*	*
!	!LO:MO:mod=ter-	!	!	!	!	!	!
2GG/	ter:	2B-/	-ni-	1d\	.	.	.
!	!	!	!	!	!	!	!LO:MO:mod=-rae
.	.	.	.	.	.	4e/	-r(ae)
!LO:PB:g=original	!	!	!	!	!	!	!
*xywh-#704:5973,532,4363,925	*	*	*	*	*	*	*
!	!LO:MO:null:mod=-rae	!	!	!	!	!	!LO:MO:null:mod=coe-
1AA/	.	0A/	-um	.	.	2f/	.
!	!	!	!	!	!	!	!LO:MO:null:mod=-li
.	.	.	.	2c/	ter-	2e/	.
=11	=11	=11	=11	=11	=11	=11	=11
!	!	!	!	!	!LO:MO:mod=-rae	!	!LO:MO:null:mod=et
1D\	Vi-	.	.	2d/	-r(ae)	1d/	.
!	!	!	!	!	!LO:MO:mod=Vi-	!	!
.	.	.	.	2f\	vi-	.	.
!	!	!	!	!	!	!	!LO:MO:null:mod=ter-
2.A\	-ſi-	2r	.	2.e\	-ſi-	1c/	.
!	!	!	!LO:MO:mod=Vi-	!	!	!	!
.	.	2c\	vi-	.	.	.	.
4A\	-bi-	.	.	4f\	-bi-	.	.
=12	=12	=12	=12	=12	=12	=12	=12
!	!	!	!	!	!	!	!LO:MO:null:mod=-rae
2G\	-li-	2d\	-ſi-	2g\	-li-	2B-/	.
2F\	-um	2f\	-bi-	1a\	-um	2A/	.
!	!LO:MO:mod=om-	!	!	!	!	!	!
2A\	o(m-	2e\	-li-	.	.	2r	.
!	!LO:MO:mod=-ni-	!	!LO:MO:mod=-um	!	!	!	!LO:MO:mod=Vi-
2B-\	-n)i-	2d\	-u(m)	2g\	.	2d/	vi-
=13	=13	=13	=13	=13	=13	=13	=13
1A\	-um	2d\	.	2f\	om-	2.a\	-ſi-
*	*	*custos:B-	*	*custos:d	*	*	*
.	.	2c/	.	2e\	-ni-	.	.
.	.	.	.	.	.	4a\	-bi-
!	!	!LO:LB:g=original	!	!LO:LB:g=original	!	!	!
*	*	*xywh-#521:1435,2069,4148,827	*	*xywh-#344:5942,2323,4403,931	*	*	*
0r	.	2B-/	.	2d/	.	2g\	-li-
!	!	!	!LO:MO:mod=et	!	!	!	!
.	.	2A/	(et)	2c/	-um	2f\	-um
=14	=14	=14	=14	=14	=14	=14	=14
!	!	!	!	!	!	!	!LO:MO:mod=om-
.	.	2d\	in-	4r	.	2a\	o(m-
.	.	.	.	4d/	et	.	.
*	*	*	*	*	*	*custos:a	*
!	!	!	!LO:MO:mod=-vi-	!	!	!	!LO:MO:mod=-ni-
.	.	2B-/	-ui-	1g\	in-	2b-\	-n)i-
!	!	!	!	!	!	!LO:LB:g=original	!
*	*	*	*	*	*	*xywh-#158:1611,1611,4284,814	*
2r	.	2c/	-ſi-	.	.	1a\	-um
!	!	!	!	!	!LO:MO:mod=-vi-	!	!
2D/	et	1d\	-bi-	2f\	-ui-	.	.
=15	=15	=15	=15	=15	=15	=15	=15
2G\	in-	.	.	2g\	-ſi-	1r	.
!	!LO:MO:mod=-vi-	!	!	!	!	!	!
2E\	-ui-	1c\	-li-	2g\	-bi-	.	.
!	!	!	!	!	!	!	!LO:MO:mod=et
2F\	-ſi-	.	.	2a\	-li-	2A/	(et)
1G\	-bi-	4B-/	-u-	1g\	-um	1d/	in-
.	.	4A/	.	.	.	.	.
=16	=16	=16	=16	=16	=16	=16	=16
.	.	1B-/	.	.	.	.	.
*	*	*	*	*	*ij	*	*
!	!	!	!	!	!	!	!LO:MO:mod=-vi-
2G\	-li-	.	.	2d/	et	2B-/	-ui-
2F\	-um	2A/	-m	2a\	in-	2c/	-ſi-
*	*ij	*	*	*	*	*	*
!	!	!	!	!	!LO:MO:mod=-vi-	!	!
2D/	et	2A/	et	2f\	-ui-	2.d/	-bi-
=17	=17	=17	=17	=17	=17	=17	=17
2G\	in-	2B-/	in-	2g\	-ſi-	.	.
.	.	.	.	.	.	4B-/	-li-
!	!LO:MO:mod=-vi-	!	!LO:MO:mod=-vi-	!	!	!	!LO:MO:mod=.
2F\	-ui-	2A/	-ui-	2.a\	-bi-	4c/	-u-
.	.	.	.	.	.	4d/	.
2E-X\	-ſi-	2B-/	-ſi-	.	.	1e-X\	.
.	.	.	.	4g\	.	.	.
*custos:D	*	*	*	*	*	*	*
!LO:TX:t=P:problem=cały system błędnie przepisanych nut, wykreślony	!	!	!	!	!	!	!
2C/	-bi-	2c/	-bi-	1g\	-li-	.	.
!LO:LB:g=original	!	!	!	!	!	!	!
=18	=18	=18	=18	=18	=18	=18	=18
*xywh-#704:5965,2033,4441,894	*	*	*	*	*	*	*
!	!	!	!	!	!	!	!LO:MO:mod=-um
1D\	-li-	1A/	-li-	.	.	2d/	-m
!	!	!	!	!LO:SIC:o=2f\	!	!	!
.	.	.	.	2f#	.	1d/	et
2GG/	-um	1G/	-um	0g\	-um	.	.
*	*Xij	*	*	*	*Xij	*	*
!	!LO:MO:mod=et	!	!	!	!	!	!
1G\	e(t)	.	.	.	.	2d/	in
=19	=19	=19	=19	=19	=19	=19	=19
!	!	!	!	!	!	!	!LO:MO:mod=u-
.	.	2r	.	.	.	2d/	v-
!	!	!	!LO:MO:mod=et	!	!	!	!
2G\	in	1d\	(et)	.	.	2g\	-num
!	!LO:MO:mod=u-	!	!	!	!	!	!LO:MO:mod=do-
1B-\	v-	.	.	00r	.	2.f\	d(o-
*	*	*custos:f	*	*	*	*	*
.	.	2d\	in	.	.	.	.
!	!	!	!	!	!	!	!LO:MO:mod=-mi-
.	.	.	.	.	.	4g\	-mi)-
!	!	!LO:LB:g=original	!	!	!	!	!
=20	=20	=20	=20	=20	=20	=20	=20
*	*	*xywh-#521:1435,2806,4251,859	*	*	*	*	*
!	!	!	!LO:MO:mod=u-	!	!	!	!
2F\	-num	1f\	v-	.	.	2a\	-num
!	!	!	!	!	!	!	!LO:MO:mod=nost-
2B-\	do-	.	.	.	.	2d/	n(ost)-
2A\	-mi-	2c/	-num	.	.	2e/	-rum
!	!LO:MO:mod=-num	!	!LO:MO:mod=do-	!	!	!	!
2F\	-nu(m)	2f\	d(o-	.	.	2a\	Je-
=21	=21	=21	=21	=21	=21	=21	=21
!	!LO:MO:mod=nost-	!	!LO:MO:mod=-mi-	!	!	!	!LO:MO:mod=-sum
2G\	n(ost)-	2e\	-mi)-	.	.	2g\	-ſu(m)
*	*	*	*	*	*	*custos:f	*
2A\	-rum	2c/	-num	.	.	2e\	chri-
!	!	!	!	!	!	!LO:LB:g=original	!
*	*	*	*	*	*	*xywh-#158:1721,2391,4161,862	*
!	!	!	!	!	!	!	!LO:MO:mod=-stum
2.D/	Je-	2d\	noſ-	1r	.	2f\	-ſtu(m)
!	!	!	!LO:MO:mod=-trum	!	!	!	!
.	.	2f\	-tru(m)	.	.	2d/	fi-
4E\	-ſum	.	.	.	.	.	.
=22	=22	=22	=22	=22	=22	=22	=22
2F\	.	2f\	Je-	2r	.	2d/	-li-
*	*	*	*	*custos:g	*	*	*
2G\	.	1d\	-ſum	2G/	fi-	2d/	-um
!	!LO:MO:mod=Chri-	!	!	!LO:LB:g=original	!	!	!
*	*	*	*	*xywh-#344:5997,3166,4273,883	*	*	*
1E-X\	Chr(i-	.	.	2G/	-li-	1g\	de-
!	!	!	!LO:MO:mod=Chri-	!	!	!	!
.	.	2c\	chr(i-	2G/	-um	.	.
=23	=23	=23	=23	=23	=23	=23	=23
!	!LO:MO:mod=-stum	!	!LO:MO:mod=-stum	!	!	!	!
1D\	-stu)m	2d\	-stu)m	1d\	de-	2f\	-i
!	!	!	!	!	!	!	!LO:MO:mod=u-
.	.	2A/	fi-	.	.	1a\	v-
2r	.	2A/	-li-	2c/	-i	.	.
!	!	!	!	!	!LO:MO:mod=u-	!	!
2D/	fi-	2A/	-um	1f\	v-	2a\	-ni-
=24	=24	=24	=24	=24	=24	=24	=24
2D/	-li-	1d\	de-	.	.	2.a\	-ge-
2D/	-um	.	.	2f\	-ni-	.	.
.	.	.	.	.	.	4f\	.
*custos:F	*	*	*	*	*	*	*
1G\	de-	1B-/	-i	2.d\	-ge-	4g\	.
.	.	.	.	.	.	4a\	.
.	.	.	.	.	.	4b-\	.
.	.	.	.	4e\	.	4g\	-ni-
!LO:LB:g=original	!	!	!	!	!	!	!
=25	=25	=25	=25	=25	=25	=25	=25
*xywh-#704:5981,2866,4386,894	*	*	*	*	*	*	*
!	!	!	!LO:MO:mod=u-	!	!	!	!
2F\	-i	2c/	v-	4f\	.	2a\	-tum
.	.	.	.	4e\	.	.	.
*	*	*	*	*	*	*	*ij
!	!LO:MO:mod=u-	!	!	!	!	!	!LO:MO:mod=u-
1G\	v-	2.B-/	-ni-	4d/	.	1b-\	v-
.	.	.	.	4c/	.	.	.
.	.	.	.	4d/	.	.	.
.	.	4G/	.	4e/	.	.	.
2D/	-ni-	4A/	.	4f\	.	2.a\	-ni-
*	*	*custos:c	*	*	*	*	*
.	.	4B-/	.	4d\	.	.	.
!	!	!LO:PB:g=original	!	!	!	!	!
=26	=26	=26	=26	=26	=26	=26	=26
*	*	*xywh-#521:5961,433,4484,1046	*	*	*	*	*
2C/	-ge-	4c/	-ge-	2e-X\	.	.	.
.	.	4B-/	.	.	.	4g\	-ge-
2E-X\	-ni-	4A/	.	2c/	.	1g\	-ni-
.	.	4G/	.	.	.	.	.
1D\	-tum	1A/	-ni-	1d\	-ni-	.	.
!	!	!	!	!	!	!LO:SIC:o=2f\	!
.	.	.	.	.	.	2f#	-tum
*	*	*	*	*	*	*	*Xij
=27	=27	=27	=27	=27	=27	=27	=27
2r	.	2G/	-tum	2d/	-tum	2g\	et
1G\	et	1d\	Et	1g\	et	1b-\	ex
2G\	ex	2d\	ex	2g\	ex	2b-\	.
=28	=28	=28	=28	=28	=28	=28	=28
!	!	!	!	!	!LO:MO:mod=pat-	!	!LO:MO:mod=pat-
2G\	pa-	2d\	pa-	2g\	p(at)-	2b-\	-p(at)-
*	*	*	*	*	*	*custos:a	*
2G\	-tre	2d\	-tre	2g\	-re	2b-\	-re
*	*	*	*	*custos:d	*	*	*
!	!	!	!	!	!	!LO:LB:g=original	!
*	*	*	*	*	*	*xywh-#158:1700,3219,4133,800	*
!	!	!	!	!LO:TX:t=P:problem=# below	!	!	!
1D\	na-	1d\	na-	1f#X\	na-	1a\	na-
!	!	!	!	!LO:PB:g=original	!	!	!
=29	=29	=29	=29	=29	=29	=29	=29
*	*	*	*	*xywh-#345:1309,690,4349,952	*	*	*
!	!	!LO:MO:mod=!null:null	!	!	!	!	!
!	!	!LO:N:acc=#	!	!	!	!	!
!	!LO:MO:mod=-tum	!LO:TX:t=P:problem=# below	!	!	!	!	!
2G\	-tu(m)	2Bn/	-tum	2d/	-tum	2g\	-tum
1C/	an-	2c/	an-	1e-X\	an-	1g\	an-
.	.	2c/	-te	.	.	.	.
2C/	-te	2c/	om-	2e-\	-te	2g\	-te
=30	=30	=30	=30	=30	=30	=30	=30
!	!LO:MO:mod=om-	!	!	!	!	!	!
2F\	o(m-	4A/	-ni-	2c/	om-	4f/	om-
.	.	4G/	.	.	.	4e/	.
!	!LO:MO:mod=-ni-	!	!	!	!	!	!
2D/	-n)i-	4A/	-a	2d/	-ni-	4f/	.
.	.	4B-/	.	.	.	4g/	.
2C/	-a	4c/	ſe-	2e-y/	-a	4a\	-ni-
.	.	4B-/	.	.	.	4g\	-a
2E\	ſe-	4A/	.	2c/	ſe-	1g\	ſe-
.	.	4G/	.	.	.	.	.
=31	=31	=31	=31	=31	=31	=31	=31
1D\	-cu-	1A/	-cu-	1d\	-cu-	.	.
!	!	!	!	!	!	!LO:SIC:o=2f\	!
.	.	.	.	.	.	2f#	-cu-
*custos:AA	*	*	*	*	*	*	*
1GG/	-la	2B-/	-la	2d/	-la	1g\	-la
*	*	*custos:d	*	*	*	*	*
.	.	2G/	De-	1B-/	.	.	.
!	!	!LO:LB:g=original	!	!	!	!	!
=32	=32	=32	=32	=32	=32	=32	=32
*	*	*xywh-#521:6051,1338,4277,781	*	*	*	*	*
1r	.	2d\	-um	.	.	2r	.
.	.	1d\	de	2B-/	.	2d/	De-
!LO:PB:g=original	!	!	!	!	!	!	!
*xywh-#705:1551,536,4266,911	*	*	*	*	*	*	*
1AA/	De-	.	.	1A/	.	1.a\	-um
.	.	2c/	de-	.	.	.	.
=33	=33	=33	=33	=33	=33	=33	=33
2D/	-um	2d\	-o	1A/	.	.	.
1D\	de	2d\	de-	.	.	2a\	de
.	.	2d\	-um	2f\	De-	1a\	de-
2F\	de-	2c/	de	2f\	-um	.	.
=34	=34	=34	=34	=34	=34	=34	=34
2.C/	-o	2.c/	de-	2.e\	de	4g\	-o
.	.	.	.	.	.	4f\	.
.	.	.	.	.	.	4g\	.
4C/	lu-	4c/	-o	4e\	de-	4a\	lu-
2C/	-men	2c/	lu-	2e\	-o	2g\	-men
2BB-/	de	2d\	-men	2f\	lu-	2d/	de
=35	=35	=35	=35	=35	=35	=35	=35
2C/	lu-	4c/	de	4e\	-men	2e/	lu-
.	.	4B-/	.	4d\	.	.	.
*	*	*	*	*	*	*custos:e	*
2D/	-mi-	4A/	.	1d\	de	2f/	-mi-
.	.	4G/	lu-	.	.	.	.
!	!	!	!	!	!	!LO:PB:g=original	!
*	*	*	*	*	*	*xywh-#158:5959,547,4571,1142	*
1AA/	-ne	1A/	-mi-	.	.	1e\	-ne
*	*	*	*	*custos:d	*	*	*
.	.	.	.	2c/	lu-	.	.
!	!	!	!	!LO:LB:g=original	!	!	!
=36	=36	=36	=36	=36	=36	=36	=36
*	*	*	*	*xywh-#345:1419,1588,4294,821	*	*	*
!	!	!LO:TX:t=P:problem=# above	!	!	!	!	!
1D\	de-	2F#X/	-ne	0d\	-ne	1r	.
.	.	2A/	de-	.	.	.	.
2.G\	-um	2.B-/	-um	.	.	2r	.
.	.	.	.	.	.	2d/	de-
4F\	.	4A/	.	.	.	.	.
=37	=37	=37	=37	=37	=37	=37	=37
4G\	.	4B-/	.	1d\	de-	2g\	-um
4A\	.	4c/	.	.	.	.	.
*	*	*custos:c	*	*	*	*	*
2B-\	ve-	2d\	ve-	.	.	4f\	ve-
.	.	.	.	.	.	4e\	.
!	!	!LO:LB:g=original	!	!	!	!	!
*	*	*xywh-#521:6012,2074,4251,865	*	*	*	*	*
2F\	-rum	2.c/	.	2f\	-um	4f\	-rum
.	.	.	.	.	.	4g\	.
1F\	de	.	.	2f\	ve-	1a\	de
.	.	4B-/	-rum	.	.	.	.
=38	=38	=38	=38	=38	=38	=38	=38
.	.	2A/	.	2c/	-rum	.	.
2E-X\	de-	2B-/	de	2e-X\	de	2g\	de-
2F\	-o	4A/	de-	4d/	.	4f/	-o
.	.	4G/	.	4c/	de-	4e/	.
*custos:D	*	*	*	*	*	*	*
2G\	ve-	1G/	-o	4B-/	.	4d/	.
.	.	.	.	8A/L	-o	4c/	.
.	.	.	.	8G/J	.	.	.
!LO:LB:g=original	!	!	!	!	!	!	!
=39	=39	=39	=39	=39	=39	=39	=39
*xywh-#705:1533,1366,4243,835	*	*	*	*	*	*	*
1D\	.	.	.	1A/	ve-	1d/	ve-
!	!	!LO:SIC:o=2F/	!	!	!	!	!
.	.	2F#	ve-	.	.	.	.
1G\	-ro	2G/	-ro	2G/	-ro	2d/	-ro
!	!	!	!LO:MO:mod=ge-	!	!	!	!LO:MO:mod=ge-
.	.	2d\	Ge-	2g\	ge-	2b-\	Ge-
=40	=40	=40	=40	=40	=40	=40	=40
0r	.	2A/	-ni-	2f\	-ni-	2.a\	-ni-
.	.	2c/	-tum	2.e\	-tum	.	.
!	!	!	!	!	!	!	!LO:MO:mod=.
.	.	.	.	.	.	4g\	-tu-
!	!	!	!	!	!	!LO:TX:t=P:problem=# above	!
!	!	!	!	!	!	!	!LO:MO:mod=-tum
.	.	2d\	non	.	.	2f#X\	-m
.	.	.	.	4d/	.	.	.
!	!	!	!LO:MO:mod=fac-	!	!	!	!
.	.	2G/	f(a)c-	1d\	non	2g\	non
=41	=41	=41	=41	=41	=41	=41	=41
!	!	!	!LO:MO:mod=-tum	!	!	!	!LO:MO:mod=fac-
1r	.	1A/	-t(u)m	.	.	1e\	f(a)c-
!	!	!	!	!	!LO:MO:mod=fac-	!	!
.	.	.	.	2c/	f(a)c-	.	.
!	!	!	!	!	!LO:MO:mod=-tum	!	!LO:MO:mod=-tum
1G\	ge-	2.B-/	ge-	2d/	-t(u)m	2d/	-t(u)m
*	*	*	*	*	*ij	*	*
.	.	.	.	2g\	ge-	2.b-\	ge-
.	.	4c/	-ni-	.	.	.	.
=42	=42	=42	=42	=42	=42	=42	=42
2D/	-ni-	2d\	-tum	2.f\	-ni-	.	.
.	.	.	.	.	.	4a\	.
2F\	-tum	2c/	.	.	.	2.a\	-ni:
*	*	*	*	*custos:d	*	*	*
.	.	.	.	4e\	.	.	.
!	!	!	!	!LO:LB:g=original	!	!	!
*	*	*	*	*xywh-#345:1467,2348,4225,842	*	*	*
2G\	non	2B-/	.	2d/	-tum	.	.
*	*	*	*	*	*	*custos:g	*
.	.	.	.	.	.	4g\	.
*	*	*custos:A	*	*	*	*	*
!	!	!	!	!	!	!LO:LB:g=original	!
*	*	*	*	*	*	*xywh-#158:6096,1567,4318,903	*
!	!LO:MO:mod=fac-	!	!	!	!	!	!
2C/	f(a)c-	2c/	.	2e-X/	non	2.g\	.
!	!	!LO:LB:g=original	!	!	!	!	!
=43	=43	=43	=43	=43	=43	=43	=43
*	*	*xywh-#521:6090,2850,4290,827	*	*	*	*	*
!	!LO:MO:mod=-tum	!	!	!	!LO:MO:mod=fac-	!	!
2.D/	-t(u)m	1A/	non	2d/	f(a)c-	.	.
.	.	.	.	.	.	4f/	.
.	.	.	.	1a\	.	2.f\	.
4D/	ge-	.	.	.	.	.	.
!	!LO:MO:mod=-ni-	!	!	!	!	!	!
2AA/	-ni:	2.c/	fac-	.	.	.	.
.	.	.	.	.	.	4e/	.
2C/	.	.	.	2g\	.	2.e/	.
.	.	4B-/	.	.	.	.	.
=44	=44	=44	=44	=44	=44	=44	=44
2D/	.	2A/	.	2f\	.	.	.
.	.	.	.	.	.	4d/	.
2GG/	.	2B-/	.	2g\	.	1d/	.
*lig	*	*	*	*	*	*	*
!	!LO:MO:null:mod=-tum	!	!	!	!	!	!
1AA/	.	1A/	-tum	1e\	.	.	.
.	.	.	.	.	.	2c/	.
=45	=45	=45	=45	=45	=45	=45	=45
1D\	.	2A/	con-	2d/	-tum	2d/	.
*	*	*	*	*	*Xij	*	*
.	.	2d\	-ſub-	2f\	con-	1a\	con-
*Xlig	*	*	*	*	*	*	*
0r	.	2d\	-ſtan-	2f\	-ſub-	.	.
.	.	2d\	-ti-	2f\	-ſtan-	2a\	-ſub-
=46	=46	=46	=46	=46	=46	=46	=46
!	!	!	!	!	!	!	!LO:MO:mod=-stan-
.	.	4B-/	-a-	4d\	-ti-	2b-\	-ſta(n)-
.	.	4c/	.	4e\	.	.	.
.	.	4d\	.	4f\	-a-	2b-\	-ti-
.	.	4e\	.	4g\	-lem	.	.
1r	.	2f\	.	4a\	.	2a\	-a-
.	.	.	.	4g\	.	.	.
!	!	!	!	!	!	!	!LO:MO:mod=-lem
.	.	2g\	-lem	1g\	.	2b-\	-le(m)
=47	=47	=47	=47	=47	=47	=47	=47
1D\	con-	1d\	pa-	.	.	1a\	pa-
.	.	.	.	4f\	pa-	.	.
.	.	.	.	4e\	.	.	.
2D/	-ſub-	2d\	-tri	2f\	-tri	2a\	-tri
*	*	*	*	*	*ij	*	*
2D/	-ſtan-	2A/	con-	2d/	con-	2f/	con-
=48	=48	=48	=48	=48	=48	=48	=48
4BB-/	-ti-	2B-/	-ſub-	2d/	-ſub-	2f/	-ſub
4C/	.	.	.	.	.	.	.
*	*	*custos:A	*	*custos:c	*	*	*
4D/	.	2B-/	-ſtan:	2d/	-ſtan-	2f/	.
*custos:F	*	*	*	*	*	*	*
4E/	.	.	.	.	.	.	.
!LO:LB:g=original	!	!LO:PB:g=original	!	!LO:LB:g=original	!	!	!
*xywh-#705:1551,2143,4342,812	*	*xywh-#522:1458,466,4430,950	*	*xywh-#345:1474,3149,4253,924	*	*	*
2F\	-a-	2A/	.	2c/	-ti-	2f/	.
*	*	*	*	*	*	*custos:d	*
2G\	-lem	2G/	.	2B-/	-a-	2d/	.
!	!	!	!	!	!	!LO:LB:g=original	!
=49	=49	=49	=49	=49	=49	=49	=49
*	*	*	*	*	*	*xywh-#158:6123,2395,4133,841	*
!	!LO:MO:mod=pat-	!	!	!	!	!	!
1D\	p(at)-	2G/	.	2A/	-lem	2d/	.
.	.	2F/	.	2A/	pa-	2d/	.
2GG/	-ri	2G/	.	2B-/	-tri	2d/	.
*	*	*	*	*	*Xij	*	*
2D/	per	1A/	per	1d\	per	1f\	per
=50	=50	=50	=50	=50	=50	=50	=50
!	!LO:MO:mod=quem	!	!	!	!	!	!
2D/	que(m)	.	.	.	.	.	.
!	!LO:MO:mod=om-	!	!LO:MO:mod=quem	!	!LO:MO:mod=quem	!	!LO:MO:mod=quem
2D/	o(m-	2A/	que(m)	2d/	que(m)	2f/	que(m)
!	!LO:MO:mod=-ni-	!	!LO:MO:mod=om-	!	!LO:MO:mod=om-	!	!
4BB-/	-n)i-	2d\	o(m-	2f\	o(m-	2b-\	om-
4C/	-a	.	.	.	.	.	.
!	!	!	!LO:MO:mod=-ni-	!	!LO:MO:mod=-ni-	!	!
4D/	.	2d\	-ni)-	2f\	-n)i-	2b-\	-ni-
4E/	.	.	.	.	.	.	.
=51	=51	=51	=51	=51	=51	=51	=51
2F\	.	2c/	-a	2f\	-a	2a\	-a
!	!	!	!LO:MO:mod=fac-	!	!LO:MO:mod=fac-	!	!
2G\	fac-	2B-/	f(a)c-	2d/	f(a)c-	1g\	fac-
1D\	-ta	1A/	-ta	2.d/	-ta	.	.
!	!	!	!	!	!	!LO:SIC:o=2f\	!
.	.	.	.	.	.	2f#	-ta
.	.	.	.	4c/	.	.	.
=52	=52	=52	=52	=52	=52	=52	=52
1G\	ſunt	2G/	ſunt	2B-/	ſunt	1g\	ſunt
*	*	*	*	*	*ij	*	*
!	!	!	!	!	!LO:MO:mod=fac-	!	!
.	.	2d\	qui	2B-/	f(a)c-	.	.
!	!LO:MO:mod=om-	!	!	!	!	!	!
2D/	o(m-	2d\	prop-	2.A/	.	1r	.
!	!LO:MO:mod=-ni-	!	!	!	!	!	!
2D/	-n)i-	2f\	-ter	.	.	.	.
.	.	.	.	4B-/	-ta	.	.
=53	=53	=53	=53	=53	=53	=53	=53
2C/	-a	2e\	nos	2c/	ſunt	1g\	qui
*	*	*	*	*	*Xij	*	*
2G\	fac-	2d\	ho-	2B-/	.	.	.
!	!	!	!LO:MO:mod=-mi-	!	!	!	!
2C/	-ta	2c/	-(m)i-	2r	.	2g\	prop-
*	*	*custos:d	*	*	*	*	*
!	!LO:MO:mod=sunt	!	!LO:MO:mod=-nes	!	!	!	!
2G\	ſ(un)t	2B-/	-(n)es.	2d\	qui	2b-\	.
=54	=54	=54	=54	=54	=54	=54	=54
!	!	!	!	!	!LO:MO:mod=prop-	!	!
2r	.	0r	.	2d\	p(ro)p-	2a\	-ter
*custos:G	*	*	*	*	*	*	*
2G\	qui	.	.	2e-X\	-ter	1g\	nos
*	*	*	*	*custos:c	*	*	*
!LO:LB:g=original	!	!	!	!	!	!	!
*xywh-#705:1510,2862,4290,929	*	*	*	*	*	*	*
!	!LO:MO:mod=prop-	!	!	!	!	!	!
2G\	p(ro)p-	.	.	1d\	nos	.	.
2B-\	-ter	.	.	.	.	4f\	.
.	.	.	.	.	.	4e\	.
!	!	!LO:LB:g=original	!	!LO:PB:g=original	!	!	!
=55	=55	=55	=55	=55	=55	=55	=55
*	*	*xywh-#522:1471,1302,4187,890	*	*xywh-#345:5807,541,4554,1075	*	*	*
2A\	nos	1r	.	2c/	ho-	2f\	.
!	!	!	!	!	!LO:MO:mod=-mi-	!	!
1G\	ho-	.	.	2B-/	-(m)i-	2g\	ho-
!	!	!	!	!	!LO:MO:mod=-nes	!	!
.	.	2r	.	1A/	-(n)es	1a\	-mi-
!	!LO:MO:mod=-mi-	!	!LO:MO:mod=et	!	!	!	!
2F\	-(m)i-	2d\	e(t)	.	.	.	.
=56	=56	=56	=56	=56	=56	=56	=56
*	*	*	*	*	*ij	*	*
!	!LO:MO:mod=-nes	!	!LO:MO:mod=prop-	!	!	!	!
1G\	-(n)es	2d\	p(ro)p-	4G/	ho-	1b-\	-nes
.	.	.	.	4A/	.	.	.
.	.	2d\	-ter	4B-/	.	.	.
.	.	.	.	4c/	.	.	.
*	*ij	*	*	*	*	*	*
2.D\	ho-	2.f\	nos-	4d/	.	2r	.
.	.	.	.	4e/	.	.	.
*	*	*	*	*	*	*custos:a	*
.	.	.	.	1f\	.	2a\	et
4E\	.	4e\	.	.	.	.	.
!	!	!	!	!	!	!LO:LB:g=original	!
=57	=57	=57	=57	=57	=57	=57	=57
*	*	*	*	*	*	*xywh-#158:6123,3209,4215,855	*
!	!	!	!	!	!	!	!LO:MO:mod=prop-
4F\	.	2d\	-tram	.	.	2a\	p(ro)p-
4G\	.	.	.	.	.	.	.
1A\	-mi-	2.c/	ſa-	4e\	.	2a\	-ter
.	.	.	.	4d\	.	.	.
!	!	!	!	!	!LO:MO:mod=-mi-	!	!LO:MO:mod=nost-
.	.	.	.	2e\	-(m)i-	2.cc\	n(ost)-
.	.	4B-/	.	.	.	.	.
2F\	-nes	4A/	.	1f\	.	.	.
*	*Xij	*	*	*	*	*	*
.	.	4G/	.	.	.	4b-\	.
=58	=58	=58	=58	=58	=58	=58	=58
2r	.	2F/	-lu-	.	.	2a\	-ram
!	!	!	!	!	!LO:MO:mod=-nes	!	!
2G\	et	2G/	-tem	2d\	-(n)es	1g\	ſa-
*	*	*	*	*	*Xij	*	*
!	!LO:MO:mod=prop-	!	!	!	!	!	!
2G\	p(ro)p-	1r	.	2d\	et	.	.
2G\	-ter	.	.	2d\	prop-	2g\	-lu-
=59	=59	=59	=59	=59	=59	=59	=59
2.B-\	noſ-	1d\	nos-	2d\	-ter	2f\	-tem
!	!	!	!	!	!LO:MO:mod=nost-	!	!
.	.	.	.	2f\	n(ost)-	1b-\	nos-
4A\	.	.	.	.	.	.	.
!	!LO:MO:mod=-tram	!	!LO:MO:mod=-tram	!	!	!	!
2G\	-tra(m)	2d\	-tra(m)	2g\	-ram	.	.
1F\	ſa-	2.f\	ſa-	1a\	ſa-	1cc\	-tram
=60	=60	=60	=60	=60	=60	=60	=60
.	.	4e\	.	.	.	.	.
2G\	-lu-	4d\	-lu-	1g\	-lu-	2b-\	ſa-
.	.	4c\	.	.	.	.	.
*custos:G	*	*	*	*	*	*	*
1D\	-tem	1d\	.	.	.	1a\	-lu-
.	.	.	.	2f\	-tem	.	.
=61	=61	=61	=61	=61	=61	=61	=61
!	!	!	!	!	!	!	!LO:MO:mod=-tem
2r	.	1G/	-tem	2g\	.	2g\	-te(m)
*	*	*	*	*custos:d	*	*	*
!LO:PB:g=original	!	!	!	!	!	!	!
*xywh-#705:5957,482,4453,964	*	*	*	*	*	*	*
1G\	de-	.	.	2g\	de-	1b-\	de-
*	*	*custos:A	*	*	*	*	*
!	!	!	!	!LO:LB:g=original	!	!	!
*	*	*	*	*xywh-#345:5971,1555,4301,876	*	*	*
.	.	1d\	de-	2d/	-ſcen-	.	.
!	!	!	!	!	!	!	!LO:MO:mod=-scen-
2D/	-ſcen-	.	.	1f\	.	2a\	-ſce(n)-
!	!	!LO:LB:g=original	!	!	!	!	!
=62	=62	=62	=62	=62	=62	=62	=62
*	*	*xywh-#522:1491,2044,4248,930	*	*	*	*	*
1F\	-dit	2A/	-ſcen-	.	.	2a\	-dit
.	.	2.c/	.	2f\	-dit	2.a\	de
2C/	de	.	.	2e\	de	.	.
.	.	4B-/	-dit	.	.	4g\	.
2E/	coe-	4A/	.	2c/	coe-	1g\	coe-
.	.	4G/	de	.	.	.	.
=63	=63	=63	=63	=63	=63	=63	=63
1D\	-lis	1A/	coe-	2d/	-lis	.	.
!	!	!	!	!	!LO:MO:null:mod=de	!LO:SIC:o=2f\	!LO:MO:mod=.
.	.	.	.	1d\	.	2f#	-lis
*	*	*	*	*	*	*custos:b-	*
!	!LO:MO:null:mod=de-	!	!	!	!	!	!LO:MO:null:mod=-lis.
1G\	.	2G/	-lis	.	.	[1gl\;<	.
.	.	2d\	des-	2B-/	.	.	.
=64	=64	=64	=64	=64	=64	=64	=64
*	*	*	*ij	*	*	*	*
!	!LO:MO:null:mod=-scen	!	!	!	!LO:MO:null:mod=coe-	!	!
2C/	.	2c/	-cen-	1G/	.	0g_	.
2G\	.	2B-/	-dit	.	.	.	.
!	!LO:MO:null:mod=-dit	!	!	!	!	!	!
1C/	.	1c\	de	0e;\	.	.	.
=65	=65	=65	=65	=65	=65	=65	=65
!	!LO:MO:null:mod=de	!	!	!	!	!	!
1C/	.	1c\	coe-	.	.	0g_	.
!	!	!LO:MO:mod=!null:null	!	!	!	!	!
!	!	!LO:N:acc=#	!	!	!	!	!
!	!LO:MO:null:mod=coe-	!LO:TX:t=P:problem=# above	!LO:MO:mod=-lis.	!	!LO:MO:null:mod=-lis.	!	!
1G\	.	[1Bnl/;	-lis	[1dl\<	.	.	.
*	*	*	*Xij	*	*	*	*
=66	=66	=66	=66	=66	=66	=66	=66
!LO:MO:mod=0GG	!LO:MO:null:mod=-lis.	!	!	!	!	!	!
0GG/;l	.	0B]	.	0d]	.	0g]	.
!	!	!	!	!	!	!LO:PB:g=original	!
*	*	*	*	*	*	*xywh-#159:1517,667,4311,1108	*
!LO:MO:mod==67||	!LO:MO:mod==67||	!LO:MO:mod==67||	!LO:MO:mod==67||	!LO:MO:mod==67||	!LO:MO:mod==67||	!LO:MO:mod==67||	!LO:MO:mod==67||
=67	=67	=67	=67	=67	=67	=67	=67
0r	.	1G/	Et	1g\	Et	1b-\	Et
.	.	1.d\	in-	1.f\	in-	1.a\	in-
=68	=68	=68	=68	=68	=68	=68	=68
1D\	Et	.	.	.	.	.	.
.	.	2A/	-car-	2f\	-car-	2a\	-car-
1.G\	in-	1.B-/	-na-	1.d\	-na-	2g\	-na-
.	.	.	.	.	.	1g\	-tus
=69	=69	=69	=69	=69	=69	=69	=69
2D/	-car-	2A/	-tus	2d/	-tus	4f/	.
.	.	.	.	.	.	4e/	.
2F\	-na-	2A/	eſt	2c/	.	4f/	.
.	.	.	.	.	.	4g/	.
*custos:G	*	*custos:B-	*	*	*	*	*
2F\	-tus	2c/	de	2f\	de	2a\	.
!LO:LB:g=original	!	!LO:LB:g=original	!	!	!	!	!
=70	=70	=70	=70	=70	=70	=70	=70
*xywh-#705:6033,1289,4220,865	*	*xywh-#522:1525,2792,4248,998	*	*	*	*	*
*	*	*	*	*custos:d	*	*	*
!	!	!	!LO:MO:mod=spi-	!	!	!	!
2G\	est	1.B-/	Spi-	2d\	ſpi-	2g\	eſt
!	!	!	!	!LO:LB:g=original	!	!	!
*	*	*	*	*xywh-#345:5999,2363,4390,862	*	*	*
1G\	de	.	.	1d\	-ri-	1g\	de
2E-X\	ſpi-	2B-/	-ri-	2e-X\	-tu	2g\	ſpi-
=71	=71	=71	=71	=71	=71	=71	=71
2F\	-ri-	1A/	-tu	2.c/	ſan-	2f\	-ri-
2F\	-tu	.	.	.	.	2.a\	-tu
.	.	.	.	4d/	.	.	.
!	!LO:MO:mod=sanc-	!	!	!	!	!	!
1C/	ſ(an)-	1c\	ſanc-	1e-X\	-cto	.	.
.	.	.	.	.	.	4g\	.
.	.	.	.	.	.	1g\	ſanc-
=72	=72	=72	=72	=72	=72	=72	=72
0D\	-cto	0A/	-to	0d\	.	.	.
!	!	!	!	!	!	!LO:TX:t=P:problem=# below	!
.	.	.	.	.	.	4f#X/	-to
.	.	.	.	.	.	4e/	.
.	.	.	.	.	.	1f#\	.
=73	=73	=73	=73	=73	=73	=73	=73
2r	.	2r	.	2r	.	2r	.
!	!LO:MO:mod=Ex	!	!	!	!LO:MO:mod=Ex	!	!LO:MO:mod=Ex
2G\	ex	2B-/	Ex	1d\	ex	2g\	ex
1G\	Ma-	1B-/	Ma-	.	.	1g\	Ma-
.	.	.	.	2d\	Ma-	.	.
=74	=74	=74	=74	=74	=74	=74	=74
*	*	*	*	*	*	*custos:d	*
2.F\	-ri-	1c\	-ri-	1f\	-ri-	1a\	-ri-
4E/	-a	.	.	.	.	.	.
!	!	!	!	!	!	!LO:LB:g=original	!
*	*	*	*	*	*	*xywh-#159:1681,1707,4161,814	*
2D/	Vir-	2B-/	-a	2f\	-a	2d/	-a
!	!	!	!	!	!	!	!LO:MO:mod=Vir-
2C/	.	1A/	Vir-	2c/	Vir-	2e/	vir-
=75	=75	=75	=75	=75	=75	=75	=75
1BB-/	-gi-	.	.	1d\	 gi-	2f/	-gi-
.	.	2G/	-gi-	.	.	2g/	-ne
1AA/	-ne	1A/	-ne	1c\	-ne	1e\	.
=76	=76	=76	=76	=76	=76	=76	=76
1r	.	1r	.	1r	.	1r	.
!	!	!	!	!	!LO:MO:mod=Et	!LO:TX:t=P:problem=# below	!
1D\	Et	1A/	Et	1d\	(et)	1f#X\	Et
=77	=77	=77	=77	=77	=77	=77	=77
1G\	ho-	1B-/	ho-	4d/	ho-	1g\	ho-
.	.	.	.	4c/	.	.	.
.	.	.	.	4d/	.	.	.
.	.	.	.	4e/	.	.	.
1F\	-mo	4A/	-mo	1f\	-mo	2a\	-mo
.	.	4G/	.	.	.	.	.
.	.	4A/	.	.	.	2.a\	fac-
.	.	4B-/	.	.	.	.	.
=78	=78	=78	=78	=78	=78	=78	=78
!	!LO:MO:mod=fac	!	!	!	!LO:MO:mod=fac-	!	!
2C/	f(a)c-	4c/	fac-	2e\	f(a)c-	.	.
.	.	4B-/	.	.	.	4g\	.
2E-X/	-tus	4A/	-tus	2c\	-tus	1g\	-tus
.	.	4G/	.	.	.	.	.
*	*	*	*	*custos:G	*	*	*
!	!	!	!	!	!LO:MO:mod=est	!	!
1D\	eſt	1A/	.	0.dl\;<	e(st)	.	.
!	!	!	!	!	!	!LO:SIC:o=2f\	!
.	.	.	.	.	.	2f#	est.
=79	=79	=79	=79	=79	=79	=79	=79
*	*	*custos:G	*	*	*	*	*
0GG/;l	.	0G/;>l	eſt.	.	.	0g\;<l	.
!LO:LB:g=original	!	!LO:PB:g=original	!	!LO:LB:g=original	!	!	!
*xywh-#705:6051,2055,4296,876	*	*xywh-#522:5918,476,4484,1126	*	*xywh-#345:5944,3158,4410,917	*	*	*
!LO:MO:mod==80||	!LO:MO:mod==80||	!LO:MO:mod==80||	!LO:MO:mod==80||	!LO:MO:mod==80||	!LO:MO:mod==80||	!LO:MO:mod==80||	!LO:MO:mod==80||
=80	=80	=80	=80	=80	=80	=80	=80
00r	.	0r	.	1r	.	1d/	Cru-
.	.	.	.	1G/	Cru-	2g\	-ci-
.	.	.	.	.	.	1g\	-fi-
=81	=81	=81	=81	=81	=81	=81	=81
*	*	*stria6	*	*	*	*	*
.	.	1G/	Cru-	2d/	-ci-	.	.
.	.	.	.	1d\	-fi-	2b-\	-xus
.	.	2d\	-ci-	.	.	2.f\	e-
.	.	1d\	-fi-	1f\	-xus	.	.
.	.	.	.	.	.	4g\	-ti-
=82	=82	=82	=82	=82	=82	=82	=82
0r	.	.	.	.	.	2a\	-am
*	*	*	*	*	*	*custos:g	*
.	.	2f\	-xus	2d/	e-	2a\	pro
!	!	!	!	!	!	!LO:LB:g=original	!
*	*	*	*	*	*	*xywh-#159:1708,2419,4120,917	*
.	.	2.c/	e-	2e\	-ti-	2g\	no-
.	.	.	.	2.e\	-am	2g\	-bis
.	.	4c/	-ti-	.	.	.	.
=83	=83	=83	=83	=83	=83	=83	=83
1r	.	2c/	-am	.	.	4cc\	.
.	.	.	.	4d/	pro	4b-\	pro
.	.	2e-X\	pro	1g\	no-	4a\	.
.	.	.	.	.	.	4g\	.
!	!LO:MO:mod=Sub	!	!	!	!	!	!
1D\	Svb	1d\	no-	.	.	1a\	no-
!	!	!	!	!LO:SIC:o=2f\	!	!	!
.	.	.	.	2f#	.	.	.
=84	=84	=84	=84	=84	=84	=84	=84
1G\	pon-	2G/	-bis	2g\	-bis	2g\	-bis
.	.	2d/	ſub	2g\	ſub	2b-\	ſub
!	!	!	!LO:MO:mod=pon-	!	!LO:MO:mod=pon-	!	!
2G\	-ti-	2d/	Pon-	2g\	Pon-	2b-\	pon-
2B-\	-o	2d/	-ti-	2f\	-ti-	2b-\	-ti-
=85	=85	=85	=85	=85	=85	=85	=85
2F\	Pi-	2c/	-o	2f\	-o	2a\	-o
2G\	-la-	2B-/	Pi-	2d/	pi-	1g\	Pi-
1D\	-to	1A/	-la-	1d\	-la-	.	.
!	!	!	!	!	!	!LO:SIC:o=2f\	!
.	.	.	.	.	.	2f#	-la-
=86	=86	=86	=86	=86	=86	=86	=86
1r	.	2G/	-to	2d/	-to	1g\	-to
*	*	*custos:d	*	*	*	*	*
.	.	1e-X\	paſ-	1g\	paſ-	.	.
2r	.	.	.	.	.	1b-\	.
*	*	*	*	*custos:d	*	*	*
!	!	!LO:LB:g=original	!	!	!	!	!
*	*	*xywh-#522:5931,1487,4417,849	*	*	*	*	*
1B-\	paſ-	1d\	-ſus	2f\	-sus	.	.
!	!	!	!	!LO:PB:g=original	!	!	!
=87	=87	=87	=87	=87	=87	=87	=87
*	*	*	*	*xywh-#346:1486,677,4294,924	*	*	*
.	.	.	.	2d/	et	2f/	.
1A\	-sus	1c\	et	2e/	ſe-	2.a\	.
.	.	.	.	2f\	-pul-	.	.
.	.	.	.	.	.	4g\	.
1G\	et	2B-/	ſe-	2g\	-tus	1b-\	paſ-
=88	=88	=88	=88	=88	=88	=88	=88
.	.	2B-/	-pul-	2d/	est	.	.
2F\	ſe-	2c/	-tus	1f\	.	1a\	-sus
2F\	-pul-	2A/	est	.	.	.	.
2G\	-tus	1B-/	ſe-	2e-X\	.	1g\	et
=89	=89	=89	=89	=89	=89	=89	=89
2D/	est	.	.	2.d/	.	.	.
*	*	*	*	*	*	*custos:g	*
!	!	!	!	!	!	!LO:SIC:o=2f\	!
2D/	.	2.A/	-pul-	.	.	2f#	ſe-
.	.	.	.	4c/	.	.	.
!	!	!	!	!	!	!LO:LB:g=original	!
*	*	*	*	*	*	*xywh-#159:1660,3220,4236,869	*
2E-X\	.	.	.	2B-/	.	2g/	-pul-
!	!	!	!LO:MO:mod=-tus	!	!	!	!
.	.	4G/	-t(us)	.	.	.	.
2C/	.	1G/	.	2c/	.	2e/	-tus
=90	=90	=90	=90	=90	=90	=90	=90
*custos:GG	*	*	*	*	*	*	*
1D\	.	.	.	1A/	.	0d/	e(st)
!	!	!LO:SIC:o=2F/	!	!	!	!	!
.	.	2F#	.	.	.	.	.
!LO:LB:g=original	!	!	!	!	!	!	!
*xywh-#705:5963,2592,4494,1028	*	*	*	*	*	*	*
0GG/	.	0G/	.	2B-/	.	.	.
.	.	.	.	2G/	Et	.	.
=91	=91	=91	=91	=91	=91	=91	=91
.	.	.	.	2d\	re-	2r	.
.	.	.	.	2d\	-ſur-	2d/	Et
0r	.	1r	.	1f\	-re-	2a\	re-
.	.	.	.	.	.	2a\	-ſur-
=92	=92	=92	=92	=92	=92	=92	=92
.	.	1G/	Et	2d\	-xit	1b-\	-re-
.	.	.	.	2g\	ter-	.	.
1r	.	2d\	re-	2.f\	-ci-	2a\	-xit
.	.	2d\	-ſur-	.	.	1a\	ter-
.	.	.	.	4e\	-a	.	.
=93	=93	=93	=93	=93	=93	=93	=93
!	!	!	!	!	!LO:MO:null:mod=di-	!	!
1D\	Et	1f\	-re-	2.d\	.	.	.
.	.	.	.	.	.	2f\	-ci-
.	.	.	.	4c/	.	.	.
!	!	!	!	!	!LO:MO:null:mod=-e	!	!
2G\	re-	2d\	-xit	4B-/	.	2g\	-a
!	!	!	!	!	!LO:MO:mod=.	!	!
.	.	.	.	4A/	di-	.	.
!	!	!	!	!	!LO:MO:mod=.	!	!
2G\	-ſur-	2g\	ter-	4B-/	-e	2.b-\	di-
*	*	*	*	*custos:d	*	*	*
.	.	.	.	4c/	.	.	.
!	!	!	!	!LO:LB:g=original	!	!	!
=94	=94	=94	=94	=94	=94	=94	=94
*	*	*	*	*xywh-#346:1561,1533,4136,856	*	*	*
!	!	!	!	!	!LO:MO:mod=se-	!	!
1B-\	-re-	4f\	-ci-	1d\	ſ(e)-	.	.
.	.	4e\	.	.	.	4a\	-e
.	.	4d\	.	.	.	2f/	.
*	*	*custos:d	*	*	*	*	*
.	.	4c\	.	.	.	.	.
!	!	!LO:LB:g=original	!	!	!	!	!
*	*	*xywh-#522:5985,2297,4423,768	*	*	*	*	*
!	!	!	!	!	!LO:MO:mod=-cun-	!	!
2G\	-xit	2d\	-a	2B-/	-c(un)-	2g\	.
!	!	!	!	!	!LO:MO:mod=-dum	!	!
1c\	ter-	2e-X\	di-	2c/	-d(u)m	1g\	ſe-
=95	=95	=95	=95	=95	=95	=95	=95
!	!	!	!	!	!LO:MO:mod=scrip-	!	!
.	.	2c/	 e	2e-X\	ſceip-	.	.
4B-\	.	1d\	ſe-	4d/	-tu-	1b-\	-cun-
4A\	-ci-	.	.	4c/	.	.	.
2G\	-a	.	.	2B-/	-ras	.	.
2F\	di-	2f\	-cun-	2c/	.	2a\	-du
=96	=96	=96	=96	=96	=96	=96	=96
1G\	-e	4e/	.	2B-/	.	2.g\	ſcrip-
.	.	4d/	.	.	.	.	.
.	.	1d\	.	2G/	et	.	.
.	.	.	.	.	.	4f/	.
*	*	*	*	*	*	*custos:d	*
1r	.	.	.	2G/	a-	1e\	-tu-
.	.	2c/	-dum	2A/	-ſcen-	.	.
!	!	!	!	!	!	!LO:PB:g=original	!
=97	=97	=97	=97	=97	=97	=97	=97
*	*	*	*	*	*	*xywh-#159:6039,667,4345,964	*
2r	.	2.d/	.	2B-/	-dit	1d/	-ras
2G\	et	.	.	1d\	in	.	.
.	.	4c/	.	.	.	.	.
2G\	a-	2B-/	ſcrip-	.	.	1r	.
2A\	-ſcen-	2A/	-tu-	2c/	coe-	.	.
=98	=98	=98	=98	=98	=98	=98	=98
!	!	!	!	!	!LO:MO:mod=-lum	!	!
1.B-\	-dit	2G/	-ras	1d\	-lu(m)	2r	.
.	.	2d\	Et	.	.	2f\	et
.	.	2d\	a-	1r	.	2f\	a-
4A\	.	2e\	-ſcen-	.	.	2g\	-ſcen-
4G\	.	.	.	.	.	.	.
=99	=99	=99	=99	=99	=99	=99	=99
*custos:B-	*	*	*	*	*	*	*
2F\	.	1.f\	-dit	2r	.	2a\	-dit
!LO:PB:g=original	!	!	!	!	!	!	!
*xywh-#706:1564,483,4268,947	*	*	*	*	*	*	*
*	*	*	*	*	*ij	*	*
1B-\	in	.	.	2d\	et	2.b-\	in
.	.	.	.	2d\	a-	.	.
.	.	.	.	.	.	4a\	.
2c\	.	4e\	.	1e\	-ſcen-	1g\	coe-
*	*	*custos:c	*	*	*	*	*
.	.	4d\	.	.	.	.	.
!	!	!LO:LB:g=original	!	!	!	!	!
=100	=100	=100	=100	=100	=100	=100	=100
*	*	*xywh-#522:6026,3065,4356,836	*	*	*	*	*
1A\	coe-	1c\	in	.	.	.	.
.	.	.	.	2f\	-dit	2f\	.
1G\	-lum	4B-/	coe-	2d/	in	4g\	.
.	.	4c/	.	.	.	4a\	.
.	.	4d/	.	2.g\	coe-	4b-\	.
.	.	4B-/	.	.	.	4g\	.
=101	=101	=101	=101	=101	=101	=101	=101
!	!	!	!LO:MO:mod=-lum	!	!	!	!
1r	.	2c/	-lu(m)	.	.	1a\	-lum
.	.	.	.	8f\L	.	.	.
*	*	*	*	*custos:f	*	*	*
.	.	.	.	8e\J	.	.	.
!	!	!	!	!LO:LB:g=original	!	!	!
*	*	*	*	*xywh-#346:1520,2355,4246,835	*	*	*
.	.	2d/	ſe-	2f\	.	.	.
!	!	!	!	!	!LO:MO:mod=-lum	!	!
1G\	ſe-	1d\	-det	1g\	-lu(m)	1b-\	.
*	*	*	*	*	*Xij	*	*
=102	=102	=102	=102	=102	=102	=102	=102
1G\	-det	2r	.	0r	.	1g\	ſe-
.	.	2d\	ad	.	.	.	.
2r	.	2e-X\	dex-	.	.	1g\	-det
!	!	!	!LO:MO:mod=-te-	!	!	!	!
2G\	ad	2d\	-t(e)-	.	.	.	.
=103	=103	=103	=103	=103	=103	=103	=103
!	!	!	!LO:MO:mod=-ram	!	!	!	!
2B-\	dex-	2d\	-r(a)m	1r	.	2r	.
!	!	!	!LO:MO:mod=pat-	!	!	!	!
2A\	-te-	2c/	p(at)-	.	.	2a\	ad
2G\	-ram	2d/	-ris	1d\	ſe-	2b-\	dex-
*	*	*	*ij	*	*	*	*
!	!LO:MO:mod=pat-	!	!	!	!	!	!
2F\	p(at)-	2A/	ad	.	.	2a\	-te-
=104	=104	=104	=104	=104	=104	=104	=104
!	!	!	!	!	!	!	!LO:MO:mod=-ram
2G\	-ris	2B-/	dex-	1d\	-det	2g\	-ra(m)
*	*	*	*	*	*	*custos:g	*
*	*ij	*	*	*	*	*	*
!	!	!	!LO:MO:mod=-te-	!	!	!	!
2D/	ad	2A/	-t(e)-	.	.	2f\	pa-
!	!	!	!	!	!	!LO:LB:g=original	!
*	*	*	*	*	*	*xywh-#159:6066,1549,4263,896	*
!	!	!	!LO:MO:mod=-ram	!	!	!	!
1G\	dex-	1B-/	-r(a)m	2r	.	1g\	-tris
.	.	.	.	2d\	ad	.	.
=105	=105	=105	=105	=105	=105	=105	=105
*	*	*	*	*	*	*	*ij
4F\	-te-	4A/	Pa-	2f\	dex-	2a\	ad
4G\	.	4B-/	.	.	.	.	.
4A\	.	4c/	.	2.e\	-te-	2a\	dex-
*	*	*custos:e	*	*	*	*	*
4B-\	.	4d/	.	.	.	.	.
!	!	!LO:PB:g=original	!	!	!	!	!
*	*	*xywh-#523:1400,517,4321,1011	*	*	*	*	*
2c\	-ram	4e\	.	.	.	2g\	-te-
.	.	4f\	.	4d/	.	.	.
!	!LO:MO:mod=pat-	!	!	!	!	!	!LO:MO:mod=-ram
2G\	p(at)-	2g\	.	1d\	-ram	2b-\	-ra(m)
=106	=106	=106	=106	=106	=106	=106	=106
1A\	-ris	1e\	.	.	.	1a\	pa-
*	*Xij	*	*	*	*	*	*
!	!	!	!	!	!LO:MO:mod=pat-	!	!
.	.	.	.	2c/	p(at)-	.	.
2r	.	1d\	-tris	1d\	-ris	2f\	-tris
*	*	*	*Xij	*	*	*	*Xij
*custos:D	*	*	*	*	*	*	*
2D/	et	.	.	.	.	2f\	et
!LO:LB:g=original	!	!	!	!	!	!	!
=107	=107	=107	=107	=107	=107	=107	=107
*xywh-#706:1503,1302,4329,865	*	*	*	*	*	*	*
2D/	i-	2r	.	1A/	et	2f\	i-
2D/	-te-	2d\	et	.	.	2f\	-te-
1G\	-rum	2d\	i-	2B-/	i-	4g\	-rum
.	.	.	.	.	.	4f\	.
.	.	2d\	-te-	2B-/	-te-	4g\	.
.	.	.	.	.	.	4a\	.
=108	=108	=108	=108	=108	=108	=108	=108
2r	.	1g\	-rum	4G/	-rum	1b-\	ven-
.	.	.	.	4A/	.	.	.
2G\	ven-	.	.	4B-/	.	.	.
.	.	.	.	4c/	.	.	.
2D/	-tu-	2r	.	2d/	ven-	2a\	-tu-
2E-X/	-rus	2g\	ven-	2G/	-tu-	2g\	-rus
=109	=109	=109	=109	=109	=109	=109	=109
2D/	.	2d\	-tu-	2A/	-rus-	2f\	eſt
*	*	*	*	*custos:A	*	*	*
!	!LO:MO:mod=cum	!	!	!	!	!	!
2C/	cu(m)	2e-X\	-rus	2c/	-est	2g\	cum
!	!	!	!	!LO:LB:g=original	!	!	!
*	*	*	*	*xywh-#346:1589,3177,4136,828	*	*	*
!	!	!	!	!	!	!	!LO:MO:mod=glo-
2D/	glo-	2d\	eſt	2A/	cum	2f\	gl(o-
!	!	!	!	!	!	!	!LO:MO:mod=-ri-
2E-X/	-ri-	2c\	cum	2G/	glo-	1g\	-ri)-
=110	=110	=110	=110	=110	=110	=110	=110
!	!	!	!LO:MO:mod=glo-	!	!	!	!
1D\	-a	1.d\	gl(o-	1A/	-ri-	.	.
.	.	.	.	.	.	2f\	-a
*	*	*	*	*	*	*custos:f	*
2r	.	.	.	0A/	-a	1e\	iu-
!	!	!	!LO:MO:mod=-ri-	!	!	!	!
2AA/	iu-	2c/	-ri)-	.	.	.	.
!	!	!	!	!	!	!LO:LB:g=original	!
=111	=111	=111	=111	=111	=111	=111	=111
*	*	*	*	*	*	*xywh-#159:6135,2357,4270,848	*
2.D/	-di-	2d/	-a	.	.	2.f/	-di-
.	.	1d\	iu-	.	.	.	.
4C/	-ca-	.	.	.	.	4e/	.
4D/	.	.	.	2f\	iu-	4f/	.
4E/	.	.	.	.	.	4g/	.
*	*	*custos:c	*	*	*	*	*
2F\	-re	2c/	-di-	2f\	-di-	2a\	.
!	!	!LO:LB:g=original	!	!	!	!	!
=112	=112	=112	=112	=112	=112	=112	=112
*	*	*xywh-#523:1496,1472,4256,825	*	*	*	*	*
2.C/	.	2.c/	-ca-	2.e\	-ca-	4g\	-ca-
.	.	.	.	.	.	4f\	.
.	.	.	.	.	.	4g\	.
4C/	vi-	4c/	-re	4e\	-re	4a\	.
2C/	-uos	2c/	vi-	2e\	vi-	2g\	-re
*custos:C	*	*	*	*	*	*	*
2BB-/	et	2d/	-uos	2f\	-uos	2d/	vi-
!LO:LB:g=original	!	!	!	!	!	!	!
=113	=113	=113	=113	=113	=113	=113	=113
*xywh-#706:1530,2033,4241,859	*	*	*	*	*	*	*
!	!	!	!	!	!LO:MO:mod=et	!	!
2C/	mor-	4c/	et	4e\	e(t)	2e/	-vos
.	.	4B-/	.	4d\	.	.	.
2D/	-tu-	4A/	.	1d\	mor-	2f/	et
.	.	4G/	mor-	.	.	.	.
1AA/	-os	1A/	-tu-	.	.	1e\	mor-
.	.	.	.	2c/	-tu-	.	.
=114	=114	=114	=114	=114	=114	=114	=114
1.D\	Cu-	2F/	-os	2d,/	-os	2d/	-tu-
!	!	!	!	!	!	!LO:TX:t=P:problem=# below	!
.	.	1A/	cu-	1d\	cu-	1f#X\	-os
!	!	!	!	!	!LO:MO:mod=-ius	!	!
2D/	-ius	2A/	-ius	2d/	-i(us)	2f#/	cu-
=115	=115	=115	=115	=115	=115	=115	=115
1G\	re-	2B-/	re-	1d\	re-	2g\	-ius
.	.	2B-/	-gni	.	.	2g\	re-
2D\	-gni	4A/	non	2d/	-gni	4f/	-gni
.	.	4G/	.	.	.	4e/	.
2F\	non	4A/	.	2c/	non	4f/	non
.	.	4B-/	.	.	.	4g/	.
=116	=116	=116	=116	=116	=116	=116	=116
2C/	e-	2c/	e-	2e-X\	e-	4a\	.
.	.	.	.	.	.	4g\	e-
*	*	*	*	*custos:d	*	*custos:f#	*
2E-X\	-rit	2G/	-rit	2c/	-rit	2g\	-rit
!	!	!	!	!LO:PB:g=original	!	!LO:LB:g=original	!
*	*	*	*	*xywh-#346:5861,604,4506,999	*	*xywh-#159:6148,3185,4243,937	*
!	!	!	!	!	!	!LO:TX:t=P:problem=# below	!
2D/	fi-	2A/	fi-	2d/	fi-	2f#X/	fi-
2D/	-nis	2A/	-nis	2d/	-nis	2f#/	-nis
=117	=117	=117	=117	=117	=117	=117	=117
1r	.	1r	.	1r	.	1r	.
!	!	!LO:MO:mod=!null:null	!	!	!	!	!
!	!	!LO:N:acc=#	!	!	!	!	!
!	!	!LO:TX:t=P:problem=# below	!	!	!	!	!
!	!	!	!LO:MO:mod=Et	!	!	!	!
1G\	Et	1Bn/	et	1d\	Et	1g\	Et
!	!	!LO:LB:g=original	!	!	!	!	!
=118	=118	=118	=118	=118	=118	=118	=118
*	*	*xywh-#523:1537,2305,4264,833	*	*	*	*	*
2G\	in	2Bny/	in	2d/	in	2g\	in
2.G\	ſpi-	2.B/	ſpi-	2.d/	ſpi-	2.g\	ſpi-
4G\	-ri-	4B/	-ri-	4d/	-ri-	4g\	-ri-
!	!LO:MO:mod=-tum	!	!LO:MO:mod=-tum	!	!	!	!LO:MO:mod=-tum
2D/	-tu(m)	2A/	-tu(m)	2d/	-tum	2f\	-tu(m)
=119	=119	=119	=119	=119	=119	=119	=119
2.D/	ſanc-	1d\	ſanc-	2f\	ſanc-	2.a\	ſanc-
.	.	.	.	2.f\	-tum	.	.
4E/	.	.	.	.	.	4g\	.
*custos:G	*	*	*	*	*	*	*
!	!	!	!LO:MO:mod=-tum	!	!	!	!
2F\	-tum	2c/	-tu(m)	.	.	2a\	-tum
.	.	.	.	4e\	.	.	.
!LO:LB:g=original	!	!	!	!	!	!	!
*xywh-#706:1578,2817,4234,879	*	*	*	*	*	*	*
2.G\	do-	4B-/	.	4d\	.	2.b-\	do-
.	.	4A/	.	4c/	.	.	.
=120	=120	=120	=120	=120	=120	=120	=120
.	.	4G/	.	4B-/	.	.	.
4F\	.	4A/	.	4c/	.	4a\	.
!	!	!	!LO:MO:mod=do-	!	!LO:MO:mod=do-	!	!
4E/	.	1B-/	d(o-	1d\	d(o-	4g\	.
4D/	.	.	.	.	.	4f\	.
1E\	-mi-	.	.	.	.	2g\	.
!	!	!	!LO:MO:mod=-mi-	!	!LO:MO:mod=-mi-	!	!
.	.	4A/	-mi)-	2c/	-mi)-	2g\	-mi-
.	.	4G/	.	.	.	.	.
=121	=121	=121	=121	=121	=121	=121	=121
!	!	!	!	!	!	!LO:TX:t=P:problem=# below	!
!	!	!	!	!	!	!	!LO:MO:mod=-num
2D/	-num	2A/	-num	2d/	-num	1f#X\	-nu(m)
!	!	!	!	!	!LO:MO:mod=et	!	!
2D/	et	2A/	et	2.d/	e(t)	.	.
!	!LO:MO:mod=vi-	!	!	!	!	!	!
1.G\	Vi-	1B-/	vi-	.	.	1d/	et
.	.	.	.	4c/	.	.	.
.	.	.	.	4B-/	.	.	.
.	.	.	.	4A/	.	.	.
=122	=122	=122	=122	=122	=122	=122	=122
!	!	!	!LO:MO:mod=-vi-	!	!	!	!
.	.	2B-/	-ui-	2G/	vi-	2d/	vi-
!	!LO:MO:mod=-vi-	!	!	!	!LO:MO:mod=-vi-	!	!LO:MO:mod=-vi-
2F\	-ui-	2.A/	-fi-	2A/	-ui-	2d/	-ui-
*	*	*	*	*	*	*custos:d	*
!LO:SIC:o=2E\	!	!	!	!	!	!	!
2E-	-fi-	.	.	2B-/	-fi-	1e-X\	-fi-
.	.	4G/	.	.	.	.	.
2C/	-can-	1G/	.	2c/	-can-	.	.
!	!	!	!	!	!	!LO:PB:g=original	!
=123	=123	=123	=123	=123	=123	=123	=123
*	*	*	*	*	*	*xywh-#160:1573,575,4304,1006	*
*	*	*	*	*custos:B	*	*	*
1D\	-tem	.	.	1A/	-tem	1d/	-can-
!	!	!LO:SIC:o=2F/	!	!	!	!	!
.	.	2F#	-can-	.	.	.	.
!	!	!	!	!LO:LB:g=original	!	!	!
*	*	*	*	*xywh-#346:5964,1522,4499,904	*	*	*
!	!	!	!	!LO:MO:mod=!null:null	!	!	!
!	!	!	!	!LO:N:acc=#	!	!	!
!	!	!	!	!LO:TX:t=P:problem=# above	!	!	!
!	!	!	!LO:MO:mod=-tem	!	!	!	!
2r	.	1G/	-te(m)	0Bn/	.	0d/	-tem
1G\	Qui	.	.	.	.	.	.
=124	=124	=124	=124	=124	=124	=124	=124
.	.	2r	.	.	.	.	.
!	!	!	!LO:MO:mod=Qui	!	!	!	!
2G\	ex	1d\	qui	.	.	.	.
!	!LO:MO:mod=pat-	!	!	!	!	!	!
1G\	p(at)-	.	.	0r	.	1r	.
*	*	*custos:d	*	*	*	*	*
.	.	2d\	ex	.	.	.	.
!	!	!LO:LB:g=original	!	!	!	!	!
=125	=125	=125	=125	=125	=125	=125	=125
*	*	*xywh-#523:1529,3082,4289,825	*	*	*	*	*
!	!	!	!LO:MO:mod=pat-	!	!	!	!
2D/	-re	1d\	p(at)-	.	.	2r	.
2G\	fi-	.	.	.	.	2b-\	fi-
2F\	-li-	2A/	-re	1f\	fi-	2a\	-li-
2D/	-o-	2d/	fi-	.	.	2f\	-o-
=126	=126	=126	=126	=126	=126	=126	=126
!	!LO:MO:mod=-que	!	!	!	!	!	!LO:MO:mod=-que
2E-X\	-q(ue)	2c/	-li-	2e-X\	-li-	2g\	-q(ue)
*custos:E-	*	*	*	*	*	*	*
2F\	pro-	2A/	-o-	2c/	-o-	2.a\	pro-
!LO:PB:g=original	!	!	!	!	!	!	!
*xywh-#706:5924,490,4458,940	*	*	*	*	*	*	*
!	!	!	!LO:MO:mod=-que	!	!LO:MO:mod=-que	!	!
2E-/	.	2B-/	-q(ue)	2e-\	-q(ue)	.	.
.	.	.	.	.	.	4g\	-ce-
2C/	-ce-	2c/	pro-	2e-\	pro-	1g\	-dit
=127	=127	=127	=127	=127	=127	=127	=127
1D\	-dit	1A/	-ce-	1d\	-ce-	.	.
!	!	!	!	!	!	!LO:SIC:o=2f\	!
.	.	.	.	.	.	2f#	.
2r	.	2G/	-dit	2d/	-dit	1g\	.
!	!	!	!	!LO:MO:mod=!null:null	!	!	!
!	!	!	!	!LO:N:acc=#	!	!	!
!	!	!	!	!LO:TX:t=P:problem=# below	!	!	!
!	!	!	!LO:MO:mod=Qui	!	!LO:MO:mod=Qui	!	!
2G\	Qui	2d\	qui	2Bn/	q(ui)	.	.
=128	=128	=128	=128	=128	=128	=128	=128
!	!	!	!LO:MO:mod=cum	!	!	!	!
2G\	cum	2d\	cu(m)	2BnX/	cum	1r	.
!	!LO:MO:mod=pat-	!	!LO:MO:mod=pat-	!	!LO:MO:mod=pat-	!	!
2C/	p(at)-	2e-X\	p(at)-	2c/	p(at)-	.	.
1D\	-re	1d\	-re	2A/	-re	2r	.
!	!	!	!	!	!LO:MO:mod=et	!	!
.	.	.	.	2d/	e(t)	2a\	et
=129	=129	=129	=129	=129	=129	=129	=129
1r	.	1r	.	2d/	fi-	2a\	fi-
.	.	.	.	2G/	-li-	2b-\	-li-
2r	.	2r	.	2A/	-o	2a\	-o
1D\	ſi-	1F/	ſi-	1A/	ſi-	1d/	ſi-
=130	=130	=130	=130	=130	=130	=130	=130
2D/	-mul	2F/	-mul	2A/	-mul	2d/	-mul
4BB-/	a-	1B-/	a-	1d\	a-	1f\	a-
4C/	.	.	.	.	.	.	.
4D/	.	.	.	.	.	.	.
4E/	.	.	.	.	.	.	.
=131	=131	=131	=131	=131	=131	=131	=131
*	*	*	*	*custos:b-	*	*	*
2F\	-do-	2A/	-do-	2c/	-do-	2f/	-do-
*	*	*	*	*	*	*custos:d	*
!	!	!	!	!LO:LB:g=original	!	!	!
*	*	*	*	*xywh-#346:6032,2337,4239,869	*	*	*
2G\	-ra-	1G/	-ra-	2B-/	-ra-	2d/	-ra-
!	!	!	!	!	!	!LO:LB:g=original	!
*	*	*	*	*	*	*xywh-#160:1648,1458,4188,930	*
1D\	-tur	.	.	1A/	-tur	1d/	-tur
!	!	!LO:TX:t=P:problem=# below	!	!	!	!	!
.	.	4F#X/	.	.	.	.	.
.	.	4E/	.	.	.	.	.
!	!	!LO:PB:g=original	!	!	!	!	!
=132	=132	=132	=132	=132	=132	=132	=132
*	*	*xywh-#523:5970,416,4523,1141	*	*	*	*	*
!	!	!LO:SIC:o=2F/	!	!	!	!	!
2D/	et	2F#	-tur	1d\	et	2r	.
2D/	con-	2A/	et	.	.	2f\	et
4BB-/	-glo-	2d/	con-	2f\	con-	2b-\	co(n)-
4C/	.	.	.	.	.	.	.
4D/	.	2d/	-glo-	2f\	-glo-	2b-\	-glo-
4E/	.	.	.	.	.	.	.
=133	=133	=133	=133	=133	=133	=133	=133
2F\	-ri-	2c/	-ri-	2f\	-ri-	2a\	-ri-
*custos:D	*	*	*	*	*	*	*
2G\	-fi-	2B-/	-fi-	2d\	-fi-	1g\	-fi-
!LO:LB:g=original	!	!	!	!	!	!	!
*xywh-#706:5964,1322,4356,872	*	*	*	*	*	*	*
1D\	-ca-	1A/	-ca-	1d\	-ca-	.	.
!	!	!	!	!	!	!LO:SIC:o=2f\	!
.	.	.	.	.	.	2f#	-ca-
=134	=134	=134	=134	=134	=134	=134	=134
1G\	-tur	2G/	-tur	2d\	-tur	2g\	-tur
!	!	!	!	!	!LO:MO:mod=Qui	!	!LO:MO:mod=Qui
.	.	2d/	Qui	2g\	qui	2b-\	qui
0r	.	2d/	lo-	2f\	lo-	2.a\	lo-
!	!	!LO:TX:t=P:problem=# below	!	!	!	!	!
.	.	4c#X/	-cu-	4e\	-cu-	.	.
!	!	!	!LO:MO:mod=-tus	!	!LO:MO:mod=-tus	!	!
.	.	4c#/	-t(us)	4e\	-t(us)	4a\	-cu-
=135	=135	=135	=135	=135	=135	=135	=135
!	!	!	!	!	!	!	!LO:MO:mod=-tus
.	.	2d/	eſt	2f\	eſt	2a\	-t(us)
.	.	2f\	per	2.a\	per	2a\	eſt
!	!	!	!	!	!	!	!LO:MO:mod=per
1r	.	2e-X\	pro-	.	.	2b-\	p(er)
.	.	.	.	4g\	.	.	.
.	.	2c\	-phe-	1g\	pro-	2cc\	pro-
=136	=136	=136	=136	=136	=136	=136	=136
1D\	Et	1d\	-tas	.	.	1a\	-phe-
.	.	.	.	2f\	-phe-	.	.
!	!LO:MO:mod=u-	!	!	!	!	!	!
2G\	v-	2r	.	2g\	-tas	1g\	-tas
!	!	!	!	!	!LO:MO:mod=Et	!	!
1G\	-nam	2B-/	per	2G/	et	.	.
=137	=137	=137	=137	=137	=137	=137	=137
!	!	!	!LO:MO:mod=pro-	!	!LO:MO:mod=u-	!	!
.	.	2B-/	(pro-	2d/	v-	2r	.
*	*	*custos:B-	*	*custos:B-	*	*	*
!LO:TX:t=P:problem=# above	!	!	!	!	!	!	!
!	!	!	!	!	!LO:MO:mod=-nam	!	!LO:MO:mod=Et
2F#X\	ſanc-	2A/	-phe-	2d/	-na(m)	2d/	et
!	!	!LO:LB:g=original	!	!LO:LB:g=original	!	!	!
*	*	*xywh-#523:5938,1444,4499,882	*	*xywh-#346:5985,3104,4328,904	*	*	*
!	!LO:MO:mod=-tam	!	!LO:MO:mod=-tas	!	!	!	!LO:MO:mod=u-
2G\	-ta(m)	2B-/	-tas)	2B-/	ſanc-	2g\	v-
*	*	*	*	*	*	*custos:f	*
!	!	!	!LO:MO:mod=Et	!	!LO:MO:mod=-tam	!	!
2.B-\	ca-	2G/	et	2.d/	-ta(m)	2g\	-nam
!	!	!	!	!	!	!LO:LB:g=original	!
=138	=138	=138	=138	=138	=138	=138	=138
*	*	*	*	*	*	*xywh-#160:1648,2266,4113,917	*
!	!	!	!LO:MO:mod=u-	!	!	!	!
.	.	2d/	v-	.	.	2f\	ſanc-
4A\	.	.	.	4c/	.	.	.
4G\	-tho-	1d\	-nam	4B-/	.	1b-\	-tam
4F\	.	.	.	4A/	.	.	.
2G\	-li-	.	.	2G/	ca-	.	.
2E\	-cam	2c/	ſanc-	2G/	-to-	4a\	.
.	.	.	.	.	.	4g\	.
=139	=139	=139	=139	=139	=139	=139	=139
!	!	!	!LO:MO:mod=-tam	!	!	!	!
0D\	.	2d/	-ta(m)	2A/	-li-	4f\	.
.	.	.	.	.	.	4g\	.
!	!	!	!	!	!LO:MO:mod=-cam	!	!
.	.	2.f\	ca-	2A/	-ca(m)	2.a\	ca-
.	.	.	.	1A/	et	.	.
.	.	4e\	-tho-	.	.	4g\	-tho-
.	.	4d/	.	.	.	4f\	.
.	.	4c/	.	.	.	4e\	.
=140	=140	=140	=140	=140	=140	=140	=140
1r	.	2B-/	.	2.d/	a-	2d/	.
.	.	2G/	-li-	.	.	1g\	.
.	.	.	.	4c/	.	.	.
!	!LO:MO:mod=Et	!	!	!	!	!	!
1D\	et	1A/	-cam	4d/	.	.	.
.	.	.	.	4e/	.	.	.
.	.	.	.	2f\	.	2f/	-li-
=141	=141	=141	=141	=141	=141	=141	=141
2.G\	a-	2r	.	2d/	.	2g/	-cam
!	!	!	!LO:MO:mod=Et	!	!	!	!LO:MO:mod=Et
.	.	2G/	et	2.g\	-po-	2.b-\	et
4F\	.	.	.	.	.	.	.
4G\	.	2d\	a-	.	.	.	.
4A\	.	.	.	4f\	.	4a\	.
2B-\	-po-	2d\	-po-	4d/	.	4f\	a-
.	.	.	.	4e/	.	4g\	.
=142	=142	=142	=142	=142	=142	=142	=142
2.F\	-ſto-	4c/	-ſto-	2.f\	-ſto-	4a\	.
.	.	4B-/	.	.	.	4g\	-po-
.	.	4c/	.	.	.	4a\	-ſto-
*custos:F	*	*	*	*	*	*	*
4F\	-li-	4d/	-li-	4f\	-li-	4b-\	.
!LO:LB:g=original	!	!	!	!	!	!	!
*xywh-#706:5958,2005,4518,892	*	*	*	*	*	*	*
!	!	!	!LO:MO:mod=-cam	!	!LO:MO:mod=-cam	!	!
2F\	-cam	2c/	-ca(m)	2f\	-ca(m)	2a\	-li-
*	*	*custos:A	*	*	*	*	*
2E-X\	ec-	2G/	ec-	2g\	ec-	2b-\	-cam
!	!	!LO:LB:g=original	!	!	!	!	!
=143	=143	=143	=143	=143	=143	=143	=143
*	*	*xywh-#523:5986,2253,4483,898	*	*	*	*	*
2F\	-cle-	2A/	-cle-	2f\	-cle-	2a\	ec-
*	*	*	*	*custos:c	*	*	*
2G\	-ſi-	2B-/	-ſi-	1d\	-ſi-	2.g\	-cle-
!	!LO:MO:mod=.	!	!	!	!	!	!
2D/	-am	1A/	-am	.	.	.	.
.	.	.	.	.	.	8f/L	.
*	*	*	*	*	*	*custos:f	*
.	.	.	.	.	.	8e/J	.
!	!	!	!	!LO:PB:g=original	!	!LO:LB:g=original	!
*	*	*	*	*xywh-#347:1412,625,4335,986	*	*xywh-#160:1627,3080,4126,944	*
2F\	.	.	.	2c/	-am	2f\	-ſi-
=144	=144	=144	=144	=144	=144	=144	=144
2E\	.	2G/	Con-	2r	.	2g\	-am
2D/	.	2.d/	-fi-	2f\	Con-	1a\	Con-
!	!LO:MO:null:mod=-am	!	!	!	!	!	!
1D\	.	.	.	2.f\	-fi-	.	.
.	.	4d/	-te-	.	.	.	.
.	.	2d/	-or	.	.	4a\	-fi-
.	.	.	.	4f\	-te-	4a\	-te-
=145	=145	=145	=145	=145	=145	=145	=145
!	!	!	!LO:MO:mod=u-	!	!	!	!
0r	.	2A/	v-	2e\	  or	2a\	  or
!	!	!	!	!	!LO:MO:mod=u-	!	!LO:MO:mod=u-
.	.	2c/	-num	2.e\	v-	2g\	v-
!	!	!	!	!	!	!LO:TX:t=P:problem=# above	!
.	.	2d/	bap-	.	.	2f#X\	-num
.	.	.	.	4d/	-num	.	.
.	.	2G/	-tiſ-	1d\	bap-	2g\	bap-
=146	=146	=146	=146	=146	=146	=146	=146
1r	.	1A/	-ma	.	.	1e\	-tiſ-
.	.	.	.	2c/	-tiſ-	.	.
!	!	!	!LO:MO:mod=u-	!	!	!	!
2r	.	1B-/	v	1d\	-ma	2d/	-ma
2.G\	Con-	.	.	.	.	2.b-\	con-
=147	=147	=147	=147	=147	=147	=147	=147
*	*	*	*	*	*ij	*	*
.	.	1.d\	num	1g\	v-	.	.
4G\	-fi-	.	.	.	.	4b-\	-fi-
2G\	-te-	.	.	.	.	2b-\	-te-
2D/	-or	.	.	2.f\	-num	2a\	-or
!	!LO:MO:mod=u-	!	!	!	!	!	!LO:MO:null:mod=con-
2F\	v-	2c/	.	.	.	2.a\	.
.	.	.	.	4e/	.	.	.
=148	=148	=148	=148	=148	=148	=148	=148
!	!LO:MO:mod=-num	!	!	!	!	!	!
2G\	-nu(m)	2B-/	.	2d\	bap-	.	.
.	.	.	.	.	.	4g\	.
!	!	!	!	!	!	!	!LO:MO:null:mod=-fi-
2C/	bap-	2c/	bap-	2e-X\	.	1g\	.
*	*	*custos:G	*	*	*	*	*
1D\	-tiſ-	1A/	-ti	1d\	-tiſ-	.	.
!	!	!	!	!	!	!LO:SIC:o=2f\	!LO:MO:null:mod=-te-
.	.	.	.	.	.	2f#	.
!	!	!LO:LB:g=original	!	!	!	!	!
=149	=149	=149	=149	=149	=149	=149	=149
*	*	*xywh-#523:6002,3087,4499,809	*	*	*	*	*
!	!	!	!LO:MO:null:mod=ma	!	!	!	!LO:MO:null:mod=-or
0G\	-ma	2G/	.	2B-/	-ma	2g\	.
*	*	*	*	*	*Xij	*	*
!	!	!LO:MO:mod=!null:null	!	!	!	!	!
!	!	!LO:N:acc=#	!	!	!	!	!
!	!	!LO:TX:t=P:problem=# above	!	!	!	!	!
.	.	1Bn/	in	1d\	in	2g\	in
.	.	.	.	.	.	2g\	re-
*	*	*	*	*	*	*custos:a	*
.	.	2B/	re-	2d/	re-	1g\	-miſ-
=150	=150	=150	=150	=150	=150	=150	=150
00r	.	2c/	-miſ-	2e\	-miſ-	.	.
!	!	!	!	!	!	!LO:PB:g=original	!
*	*	*	*	*	*	*xywh-#160:6044,598,4469,1060	*
.	.	2c/	-si-	2e\	-si-	1a\	-ſi-
.	.	2d/	-o-	2f\	-o-	.	.
*	*	*	*	*custos:e	*	*	*
!	!	!	!	!	!LO:MO:null:mod=-nem	!	!
.	.	1d\	-nem	1f\	-ne(m)	2b-\	-o-
=151	=151	=151	=151	=151	=151	=151	=151
.	.	.	.	.	.	1a\	-nem
!	!	!	!	!LO:LB:g=original	!	!	!
*	*	*	*	*xywh-#347:1542,1570,4239,849	*	*	*
.	.	2c/	pec-	2.e\	pec-	.	.
.	.	2G/	-ca-	.	.	4g\	pec-
.	.	.	.	4d/	-ca-	4f\	.
.	.	2B-/	-to-	1d\	-to-	4e/	-ca-
.	.	.	.	.	.	4d/	.
=152	=152	=152	=152	=152	=152	=152	=152
!	!	!	!LO:MO:null:mod=-rum	!	!	!	!
1r	.	1A/	-ru(m)	.	.	1e\	-to-
.	.	.	.	2c/	-tum	.	.
*custos:G	*	*	*	*	*	*	*
1.G\	Et	1.d\	Et	2d/	.	2d/	-rum
!	!	!	!	!	!LO:MO:null:mod=Et	!	!LO:MO:null:mod=Et
.	.	.	.	1g\	et	1b-\	et
=153	=153	=153	=153	=153	=153	=153	=153
!LO:LB:g=original	!	!	!	!	!	!	!
*xywh-#706:5930,2756,4397,987	*	*	*	*	*	*	*
2G\	ex-	2d/	ex-	2g\	ex-	2b-\	ex-
!	!	!	!	!LO:TX:t=P:problem=# below	!	!	!
1D\	-pec-	1d\	-pec-	1f#X\	-pec-	1a\	-pec-
=154	=154	=154	=154	=154	=154	=154	=154
1G\	-to	1B-/	-to	1d\	-to	1g\	-to
2.C/	re-	2.c/	re-	2.e-X\	re-	2.g\	re-
4C/	-ſur-	4c/	-ſur-	4e-\	-ſur-	4g\	-ſur-
=155	=155	=155	=155	=155	=155	=155	=155
4G\	-rec-	4B-/	-rec-	4d\	-rec-	4g\	-rec-
4F\	-ti-	4A/	-ti-	2f\	-ti-	2a\	-ti-
*	*	*custos:c	*	*	*	*	*
2B-\	-o-	1d\	-o-	.	.	.	.
.	.	.	.	4d\	-o-	4g\	-o-
!	!	!	!	!	!LO:MO:null:mod=-nem	!	!
1A\	-nem	.	.	1e\	-ne(m)	0a\	-nem
!	!	!LO:PB:g=original	!	!	!	!	!
*	*	*xywh-#524:1484,541,4201,1065	*	*	*	*	*
.	.	2c/	-nem	.	.	.	.
=156	=156	=156	=156	=156	=156	=156	=156
2.F\	mor-	2r	.	4f\	mor-	.	.
.	.	.	.	4e\	.	.	.
.	.	2F/	mor-	4d\	.	.	.
4E/	.	.	.	4c\	-tu-	.	.
2D/	.	2F/	-tu-	2B-/	-o-	2r	.
2C/	-tu-	2E/	-o-	1A/	-rum	2A/	mor-
=157	=157	=157	=157	=157	=157	=157	=157
1BB-/	-o-	2F/	-rum	.	.	2d/	-tu-
.	.	2D/	et	2G/	.	2d/	-o-
!	!	!	!	!	!	!	!LO:MO:null:mod=-rum
1AA/	-rum	1A/	vi-	2A/	.	2c/	-ru(m)
*	*	*	*	*custos:f	*	*custos:a	*
.	.	.	.	1c\	et	2e/	et
!	!	!	!	!LO:LB:g=original	!	!LO:LB:g=original	!
=158	=158	=158	=158	=158	=158	=158	=158
*	*	*	*	*xywh-#347:1487,2379,4116,815	*	*xywh-#160:6037,1522,4297,910	*
2r	.	2A/	-tam	.	.	1a\	vi-
!	!	!	!	!	!LO:MO:mod=vi-	!	!
2D/	et	2d/	ven-	2f\	Vi-	.	.
2F\	vi-	2c/	-tu-	1f\	-tam	2a\	-tam
2F\	-tam	2A/	-ri	.	.	2cc\	ven-
=159	=159	=159	=159	=159	=159	=159	=159
2G\	ven-	2B-/	ſe-	2d\	ven-	2b-\	-tu-
2F\	-tu-	2c/	-cu-	2f\	-tu-	2a\	-ri
2G\	-ri	2B-/	-li	1d\	-ri	2g\	ſe-
*custos:C	*	*	*	*	*	*	*
2D/	ſe-	4A/	A-	.	.	2.a\	-cu-
.	.	4B-/	.	.	.	.	.
!LO:PB:g=original	!	!	!	!	!	!	!
=160	=160	=160	=160	=160	=160	=160	=160
*xywh-#707:1433,534,4247,906	*	*	*	*	*	*	*
2C/	-cu-	4c/	.	2e-X\	ſe-	.	.
!	!	!	!LO:MO:mod=.	!	!	!	!
.	.	4B-/	-M-	.	.	4g\	-li
!	!	!	!	!	!	!	!LO:MO:mod=A-
2E-X/	-li.	4A/	.	2c/	-cu-	1g\	a-
.	.	4G/	.	.	.	.	.
!	!	!LO:TX:t=P:problem=pytajnik nad nutą, bo tu ma być semibrevis a nie brevis	!	!	!	!	!
!	!	!LO:MO:mod=!null:null	!	!	!	!	!
!	!	!LO:N:vis=0	!LO:MO:mod=-men.	!	!	!	!
1D\	A-	1A/	-E-	1d\	-li	.	.
!	!	!	!	!	!	!LO:MO:mod=2f#	!LO:MO:mod=.
.	.	.	.	.	.	2f\	-men.
=161	=161	=161	=161	=161	=161	=161	=161
!	!	!	!LO:MO:null:mod=A-	!	!LO:MO:null:mod=A-	!	!LO:MO:null:mod=-men.
2GG/	-men.	0c/	.	2.d/	.	00.g\;<	.
!	!LO:MO:null:mod=A-	!	!	!	!	!	!
2.G\	.	.	.	.	.	.	.
.	.	.	.	4c/	.	.	.
.	.	.	.	4B-/	.	.	.
4F\	.	.	.	4A/	.	.	.
!	!	!	!	!	!LO:MO:mod=-men.	!	!
4E\	.	.	.	2G/	A-	.	.
4D\	.	.	.	.	.	.	.
=162	=162	=162	=162	=162	=162	=162	=162
!	!	!	!LO:MO:mod=-men.	!	!LO:MO:mod=A-	!	!
0C/	.	00B-;/	-N	0e-X\	-men.	.	.
=163	=163	=163	=163	=163	=163	=163	=163
*lig	*	*	*	*	*	*	*
!	!LO:MO:null:mod=-men.	!	!	!	!LO:MO:null:mod=-men.	!	!
1G\	.	.	.	0d\l;<	.	.	.
1GG/;	.	.	.	.	.	.	.
*Xlig	*	*	*	*	*	*	*
==	==	==	==	==	==	==	==
*-	*-	*-	*-	*-	*-	*-	*-
!!!system-decoration: [s1,s2,s3,s4]
!!!RDF**kern: > = above
!!!RDF**kern: < = below
!!LO:MO:ori
!!!RDF**kern: l = terminal long
!!LO:MO:end
!!!filter-modern: sic -sq | humtr -p |autostem -r | tie -s | shed -e "s/TX(.*):t=P:/tx$1:t=P:/LG" | shed -k -e "s/([^a-gA-Gn#X-])[<>]/$1/g" | shed -e "s/^(\d+[\/\\]right)/$1yy/I; s/^(\d+[\/\\]left)/$1yy/I" | shed -e "s/-//B" | shed -e "s/^custos:/Xcustos:/I" | modori -m
!!!ENC: Mateusz Solarz
!!!END: 2022-03-11
!!!EED: Leszek Kubiak
!!!EEV: 2022-03-14
!!!ENC-iiif: Jan Barakat
!!!END-iiif: 2022-08-31
!!!ENC-modern: Leszek Kubiak
!!!END-modern: 2022-07-23
